X:1
T:Brosna Slide
M:12/8
L:1/8
R:slide
K:Gmaj
|: E | D2G G2A BAB d2B | A2D FED A2D FED |
D2G G2A BAB d2B |1 A2D FED G3 G2 :|2 A2D FED G3 G3 ||
|: g2f efg f2e d2B | c2B A2B c2d e2f |
g2f efg f2e d2B |1 c2A F2A G3 G3 :|2 c2A F2A G3 G2 ||
